common/src/main/resources/icons/javaee/dataSourceImport.svg

<svg xmlns="http://www.w3.org/2000/svg" width="16" height="16" data-big="true" viewBox="0 0 24 24"><path fill="#FBC02D" d="m14.22 19 2.83-2.83L14.93 14H22v7.07L19.88 19l-2.83 2.83zm-2.83 0 1-1H12c-4.42 0-8-1.79-8-4v3c0 2.21 3.58 4 8 4 .47 0 .93 0 1.38-.06zm5.9-7H20V9c0 1.2-1 2.27-2.71 3M4 9v3c0 2.21 3.58 4 8 4 .67 0 1.34-.04 2-.13L11.07 13C7.09 12.74 4 11.05 4 9m8-6C7.58 3 4 4.79 4 7s3.58 4 8 4 8-1.79 8-4-3.58-4-8-4"/></svg>

<!--
  - The MIT License (MIT)
  -
  - Copyright (c) 2015-2024 Elior "Mallowigi" Boukhobza
  -
  - Permission is hereby granted, free of charge, to any person obtaining a copy
  - of this software and associated documentation files (the "Software"), to deal
  - in the Software without restriction, including without limitation the rights
  - to use, copy, modify, merge, publish, distribute, sublicense, and/or sell
  - copies of the Software, and to permit persons to whom the Software is
  - furnished to do so, subject to the following conditions:
  -
  - The above copyright notice and this permission notice shall be included in all
  - copies or substantial portions of the Software.
  -
  - THE SOFTWARE IS PROVIDED "AS IS", WITHOUT WARRANTY OF ANY KIND, EXPRESS OR
  - IMPLIED, INCLUDING BUT NOT LIMITED TO THE WARRANTIES OF MERCHANTABILITY,
  - FITNESS FOR A PARTICULAR PURPOSE AND NONINFRINGEMENT. IN NO EVENT SHALL THE
  - AUTHORS OR COPYRIGHT HOLDERS BE LIABLE FOR ANY CLAIM, DAMAGES OR OTHER
  - LIABILITY, WHETHER IN AN ACTION OF CONTRACT, TORT OR OTHERWISE, ARISING FROM,
  - OUT OF OR IN CONNECTION WITH THE SOFTWARE OR THE USE OR OTHER DEALINGS IN THE
  - SOFTWARE.
  -->


<svg data-big="true" xmlns="http://www.w3.org/2000/svg" version="1.1" width="16px" height="16px" viewBox="0 0 24 24">
  <path fill="#FBC02D"
        d="M14.22,19L17.05,16.17L14.93,14H22V21.07L19.88,19L17.05,21.83L14.22,19M11.39,19L12.39,18H12C7.58,18 4,16.21 4,14V17C4,19.21 7.58,21 12,21C12.47,21 12.93,21 13.38,20.94L11.39,19M17.29,12H20V9C20,10.2 19,11.27 17.29,12M4,9V12C4,14.21 7.58,16 12,16C12.67,16 13.34,15.96 14,15.87L11.07,13C7.09,12.74 4,11.05 4,9M12,3C7.58,3 4,4.79 4,7C4,9.21 7.58,11 12,11C16.42,11 20,9.21 20,7C20,4.79 16.42,3 12,3Z"/>
</svg>
